!!!!SEGMENT: pl-kk--kk-i-345_gorczycki-grzegorz-gerwazy--o-sola-magnarum-urbium.krn
!!!cenid: 17xx:2158
!!!COM: Gorczycki, Grzegorz Gerwazy
!!!COM-rismid: pe30009207
!!!CDT: ~1666-1734/04/30
!!!CNT: Polish
!!!OTL: O sola magnarum urbium
!!!PDT:
!!!AGN: Sacred
!!!SMS-siglum: PL-Kk
!!!SMS-shelfmark: Kk.I.345
!!!SMS-shelfwork: W
!!!SMS-variant: Alto.: PL-Kk Kk.I.345:0009-0010; Baſso.: PL-Kk Kk.I.345:0015-0016
!!!SMS-altvar: Alto.: PL-Kk Kk.I.345:0007-0008; Basso: PL-Kk Kk.I.345:0018
!!!NIFC-rismid: 1001145440
!!!URL-scan: http://repozytorium.nifc.pl/skany/pl-kk-nut--i-345
!!!ONB-nifc:
!!!key:
**kern	**text	**text	**kern	**text	**text	**kern	**text	**text	**kern	**text	**text
*part4	*part4	*part4	*part3	*part3	*part3	*part2	*part2	*part2	*part1	*part1	*part1
*staff4	*staff4	*staff4	*staff3	*staff3	*staff3	*staff2	*staff2	*staff2	*staff1	*staff1	*staff1
*group1	*	*	*group1	*	*	*group1	*	*	*group1	*	*
*	*verse1	*verse2	*	*verse1	*verse2	*	*verse1	*verse2	*	*verse1	*verse2
*Iempty	*	*	*Itenor	*	*	*Ialto	*	*	*Ivox	*	*
*I"Baſso.	*	*	*I"Tenore.	*	*	*I"Alto.	*	*	*I"Canto.	*	*
*I'B	*	*	*I'T	*	*	*I'A	*	*	*I'S	*	*
*clefF4	*	*	*clefC4	*	*	*clefC3	*	*	*clefC1	*	*
*k[]	*	*	*k[]	*	*	*k[]	*	*	*k[]	*	*
*F:	*	*	*F:	*	*	*F:	*	*	*F:	*	*
*M3/2	*	*	*M3/2	*	*	*M3/2	*	*	*M3/2	*	*
=1-	=1-	=1-	=1-	=1-	=1-	=1-	=1-	=1-	=1-	=1-	=1-
!LO:TX:t=P:problem:kreska pseudotaktowa	!	!	!LO:TX:t=P:problem:kreska pseudotaktowa	!	!	!LO:TX:t=P:problem:kreska pseudotaktowa	!	!	!LO:TX:t=P:problem:kreska pseudotaktowa	!	!
1.AA	1._O	2._Quem	1.A	1._O	2._Quem	1.e	1._O	2._Quem	1.cc	1._O	2._Quem
=2-	=2-	=2-	=2-	=2-	=2-	=2-	=2-	=2-	=2-	=2-	=2-
*	*	*	*2\right	*	*	*2\right	*	*	*2\right	*	*
2AA/	so-	quem	2A\	so-	stel-	2e\	so-	quem	2cc\	so-	stel-
2C/	-la	stel-	2A\	-la	-la	2e\	-la	stel-	2cc\	-la	-la
!LO:TX:t=P:problem:kreska pseudotaktowa	!	!	!LO:TX:t=P:problem:kreska pseudotaktowa	!	!	!LO:TX:t=P:problem:kreska pseudotaktowa	!	!	!LO:TX:t=P:problem:kreska pseudotaktowa	!	!
2D/	Ma-	-la	2A\	ma-	quae	2e\	ma-	-la	2cc\	ma-	quae
=3-	=3-	=3-	=3-	=3-	=3-	=3-	=3-	=3-	=3-	=3-	=3-
1E	-gna-	quae	1G	-gna-	so-	2e\	-gna-	quae	1b	-gna-	so-
.	.	.	.	.	.	2e\	-rum	.	.	.	.
!LO:TX:t=P:problem:kreska pseudotaktowa	!	!	!LO:TX:t=P:problem:kreska pseudotaktowa	!	!	!LO:TX:t=P:problem:kreska pseudotaktowa	!	!	!LO:TX:t=P:problem:kreska pseudotaktowa	!	!
2AA/	-rum	so-	2A/	-rum	-lis	2e\	Ur-	so-	2cc\	-rum	-lis
=4-	=4-	=4-	=4-	=4-	=4-	=4-	=4-	=4-	=4-	=4-	=4-
1D	Ur-	-lis	1F	Ur-	Ro-	1d	.	-lis	1a	Ur-	ro-
!LO:TX:t=P:problem:kreska pseudotaktowa	!	!	!LO:TX:t=P:problem:kreska pseudotaktowa	!	!	!LO:TX:t=P:problem:kreska pseudotaktowa	!	!	!LO:TX:t=P:problem:kreska pseudotaktowa	!	!
2D/	-bi-	Ro-	2F/	-bi-	.	2d\	-bi-	ro-	2a\	-bi-	.
=5-	=5-	=5-	=5-	=5-	=5-	=5-	=5-	=5-	=5-	=5-	=5-
*M2/1	*	*	*M2/1	*	*	*M2/1	*	*	*M2/1	*	*
*met(c|)	*	*	*met(c|)	*	*	*met(c|)	*	*	*met(c|)	*	*
2AA/	-um.	-tam	2E/	-um	-tam	2c#X\	-um	-tam	2a,<\	-um	-tam,
!LO:TX:t=P:problem:kreska pseudotaktowa	!	!	!LO:TX:t=P:problem:kreska pseudotaktowa	!	!	!LO:TX:t=P:problem:kreska pseudotaktowa	!	!	!LO:TX:t=P:problem:kreska pseudotaktowa	!	!
2rGG	.	.	2rD	.	.	2rA	.	.	2g\	Ma-	vin-
!	!	!	!	!	!	!LO:TX:t=P:problem:kreska pseudotaktowa	!	!	!LO:TX:t=P:problem:kreska pseudotaktowa	!	!
00r	.	.	00r	.	.	0r	.	.	1a	.	.
=6-	=6-	=6-	=6-	=6-	=6-	=6-	=6-	=6-	=6-	=6-	=6-
!	!	!	!	!	!	!	!	!	!LO:TX:t=P:problem:kreska pseudotaktowa	!	!
.	.	.	.	.	.	.	.	.	1cc	.	.
!	!	!	!	!	!	!LO:TX:t=P:problem:kreska pseudotaktowa	!	!	!LO:TX:t=P:problem:kreska pseudotaktowa	!	!
.	.	.	.	.	.	1cn	ma-	vin-	1cc	-jor	-cit,
=7-	=7-	=7-	=7-	=7-	=7-	=7-	=7-	=7-	=7-	=7-	=7-
!	!	!	!	!	!	!	!	!	!LO:TX:t=P:problem:kreska pseudotaktowa	!	!
.	.	.	.	.	.	2.e\	.	.	1cc	Be-	de-
!	!	!	!	!	!	!LO:TX:t=P:problem:kreska pseudotaktowa	!	!	!	!	!
.	.	.	.	.	.	4f\	.	.	.	.	.
!	!	!	!	!	!	!	!	!	!LO:TX:t=P:problem:kreska pseudotaktowa	!	!
!	!	!	!	!	!	!	!	!	!LO:LB:g=original	!	!
0r	.	.	1G	Ma-	vin-	2g,<\	-jor	-cit	1b	.	.
!	!	!	!	!	!	!LO:TX:t=P:problem:kreska pseudotaktowa	!	!	!	!	!
.	.	.	.	.	.	2g\	Be-	de-	.	.	.
!	!	!	!	!	!	!LO:LB:g=original	!	!	!	!	!
=8-	=8-	=8-	=8-	=8-	=8-	=8-	=8-	=8-	=8-	=8-	=8-
.	.	.	1A	.	.	1f	-thle-	-co-	2.a\	-th-	-co-
!	!	!	!	!	!	!	!	!	!LO:TX:t=P:problem:kreska pseudotaktowa	!	!
.	.	.	.	.	.	.	.	.	4a\	-le-	.
!	!	!	!LO:TX:t=P:problem:kreska pseudotaktowa	!	!	!	!	!	!	!	!
1r	.	.	1c	-jor	-cit	2e\	-em	-re	2g,<\	-em,	-re,
.	.	.	.	.	.	2.e\	ma-	de-	1cc\	Be-	lu-
=9-	=9-	=9-	=9-	=9-	=9-	=9-	=9-	=9-	=9-	=9-	=9-
1C	Ma-	Vin-	1c	Be-	de-	.	.	.	.	.	.
.	.	.	.	.	.	4d\	-jor	.	.	.	.
!	!	!	!	!	!	!	!	!	!LO:TX:t=P:problem:kreska pseudotaktowa	!	!
.	.	.	.	.	.	4e\	Be-	.	2cc\	-thle-	-mi-
!	!	!	!	!	!	!LO:TX:t=P:problem:kreska pseudotaktowa	!	!	!	!	!
.	.	.	.	.	.	4f\	.	.	.	.	.
*2\right	*	*	*	*	*	*	*	*	*	*	*
!	!	!	!	!	!	!	!	!	!LO:TX:t=P:problem:kreska pseudotaktowa	!	!
2.E\	.	.	1c	.	-co-	2.g\	-thle-	-co-	1cc	-em	-ne
!LO:TX:t=P:problem:kreska pseudotaktowa	!	!	!	!	!	!	!	!	!	!	!
4F\	.	.	.	.	.	8f\L	-em	.	.	.	.
!	!	!	!	!	!	!LO:TX:t=P:problem:kreska pseudotaktowa	!	!	!	!	!
.	.	.	.	.	.	8e\J	.	.	.	.	.
=10-	=10-	=10-	=10-	=10-	=10-	=10-	=10-	=10-	=10-	=10-	=10-
!	!	!	!LO:TX:t=P:problem:kreska pseudotaktowa	!	!	!	!	!	!	!	!
2G,<\	-jor	-cit	1B	.	-re	1d	cu-	-re	2r	.	.
!	!	!	!	!	!	!	!	!	!LO:TX:t=P:problem:kreska pseudotaktowa	!	!
1G	Be-	de-	.	.	.	.	.	.	2g/	Ma-	vin-
!	!	!	!LO:LB:g=original	!	!	!	!	!	!	!	!
.	.	.	(1A	-thle-	et	2c\	-i	ac	2cc\	-jor	-cit
!LO:TX:t=P:problem:kreska pseudotaktowa	!	!	!	!	!	!	!	!	!LO:TX:t=P:problem:kreska pseudotaktowa	!	!
2F#X\	-thle-	-co-	.	.	.	1d\	con-	lu-	2cc\	Be-	de-
!LO:LB:g=original	!	!	!	!	!	!	!	!	!	!	!
=11-	=11-	=11-	=11-	=11-	=11-	=11-	=11-	=11-	=11-	=11-	=11-
!	!	!	!LO:TX:t=P:problem:kreska pseudotaktowa	!	!	!	!	!	!	!	!
2G,<\	-em	-re	1G)	-em	.	.	.	.	2b\	-thle-	-co-
!LO:TX:t=P:problem:kreska pseudotaktowa	!	!	!	!	!	!LO:TX:t=P:problem:kreska pseudotaktowa	!	!	!LO:TX:t=P:problem:kreska pseudotaktowa	!	!
2C/	Ma-	vin-	.	.	.	2e\	-ti-	-mi-	2cc\	-em	-re
!	!	!	!	!	!	!LO:TX:t=P:problem:kreska pseudotaktowa	!	!	!	!	!
2Fny\	-jor	-cit	1A	cu-	lu-	1f,<	-git	-ne	2a\	cu-	et
!LO:TX:t=P:problem:kreska pseudotaktowa	!	!	!	!	!	!	!	!	!LO:TX:t=P:problem:kreska pseudotaktowa	!	!
2F\	Be-	de-	.	.	.	.	.	.	2a\	-i	.
=12-	=12-	=12-	=12-	=12-	=12-	=12-	=12-	=12-	=12-	=12-	=12-
2E\	-thle-	-co-	1c	-i	-mi-	2r	.	.	2g\	con-	lu-
!LO:TX:t=P:problem:kreska pseudotaktowa	!	!	!	!	!	!LO:TX:t=P:problem:kreska pseudotaktowa	!	!	!	!	!
2C/	-em	-re	.	.	.	2c\	Be-	vin-	4ee\	.	.
!	!	!	!	!	!	!	!	!	!LO:TX:t=P:problem:kreska pseudotaktowa	!	!
.	.	.	.	.	.	.	.	.	4dd\	.	.
!	!	!	!LO:TX:t=P:problem:kreska pseudotaktowa	!	!	!	!	!	!	!	!
2AA/	cu-	et	1c	con-	-ne	2f\	-thle-	-cit	4cc\	.	.
.	.	.	.	.	.	.	.	.	4b\	.	.
!LO:TX:t=P:problem:kreska pseudotaktowa	!	!	!	!	!	!LO:TX:t=P:problem:kreska pseudotaktowa	!	!	!LO:TX:t=P:problem:kreska pseudotaktowa	!	!
2FF/	-i	.	.	.	.	2f\	-em	de-	2a\	.	.
=13-	=13-	=13-	=13-	=13-	=13-	=13-	=13-	=13-	=13-	=13-	=13-
!	!	!	!LO:TX:t=P:problem:kreska pseudotaktowa	!	!	!	!	!	!	!	!
4C\	con-	Lu-	1c	-ti-	.	2e\	cu-	-co-	2g\	.	.
4D\	.	.	.	.	.	.	.	.	.	.	.
!	!	!	!	!	!	!LO:TX:t=P:problem:kreska pseudotaktowa	!	!	!	!	!
4E\	.	.	.	.	.	2e\	-i	-re	1cc	.	.
!LO:TX:t=P:problem:kreska pseudotaktowa	!	!	!	!	!	!	!	!	!	!	!
4F\	.	.	.	.	.	.	.	.	.	.	.
2.G\	.	.	1G,<	-git	ve-	2d\	con-	lu-	.	.	.
!	!	!	!	!	!	!LO:TX:t=P:problem:kreska pseudotaktowa	!	!	!LO:LB:g=original	!	!
.	.	.	.	.	.	2d\	-ti-	-mi-	2b\	-ti-	-mi-
4G\	-ti-	-mi-	.	.	.	.	.	.	.	.	.
=14-	=14-	=14-	=14-	=14-	=14-	=14-	=14-	=14-	=14-	=14-	=14-
!LO:TX:t=P:problem:kreska pseudotaktowa	!	!	!	!	!	!LO:TX:t=P:problem:kreska pseudotaktowa	!	!	!LO:TX:t=P:problem:kreska pseudotaktowa	!	!
1C	-git	-ne	1G	Du-	-niſ-	1e	-git	-ne	1cc	-git	-ne
!	!	!	!	!	!	!LO:LB:g=original	!	!	!	!	!
(1C	Du-	Ve-	1c	-cem	.	0r	.	.	0r	.	.
=15-	=15-	=15-	=15-	=15-	=15-	=15-	=15-	=15-	=15-	=15-	=15-
!	!	!	!LO:TX:t=P:problem:kreska pseudotaktowa	!	!	!	!	!	!	!	!
1F)	.	.	1d	Sa-	-se	.	.	.	.	.	.
!LO:TX:t=P:problem:kreska pseudotaktowa	!	!	!	!	!	!	!	!	!	!	!
1G	-cem	-niſ-	1B	-lu-	ter-	1r	.	.	(1g	Du-	ve-
=16-	=16-	=16-	=16-	=16-	=16-	=16-	=16-	=16-	=16-	=16-	=16-
!	!	!	!	!	!	!LO:TX:t=P:problem:kreska pseudotaktowa	!	!	!	!	!
2E\	Sa-	-se	1c	.	.	1c	Du-	ve-	1cc)	.	.
1A	-lu-	ter-	.	.	.	.	.	.	.	.	.
!	!	!	!LO:TX:t=P:problem:kreska pseudotaktowa	!	!	!	!	!	!	!	!
.	.	.	1B	.	.	2f\	-cem	-niſ-	2dd\	-cem	-niſ-
!LO:TX:t=P:problem:kreska pseudotaktowa	!	!	!	!	!	!LO:TX:t=P:problem:kreska pseudotaktowa	!	!	!LO:TX:t=P:problem:kreska pseudotaktowa	!	!
2G\	-tis	-ris	.	.	.	2g\	sa-	-se	2b\	sa-	-se
!LO:LB:g=original	!	!	!	!	!	!	!	!	!	!	!
=17-	=17-	=17-	=17-	=17-	=17-	=17-	=17-	=17-	=17-	=17-	=17-
(4F\	Sa-	nun-	1A	.	.	2a\	-lu-	ter-	2cc\	-lu-	ter-
4E\)	.	.	.	.	.	.	.	.	.	.	.
!	!	!	!	!	!	!LO:TX:t=P:problem:kreska pseudotaktowa	!	!	!LO:TX:t=P:problem:kreska pseudotaktowa	!	!
(4F\	.	.	.	.	.	2f\	-tis	-ris	2a\	-tis	-ris
!LO:TX:t=P:problem:kreska pseudotaktowa	!	!	!	!	!	!	!	!	!	!	!
4D\)	.	.	.	.	.	.	.	.	.	.	.
(4E\	-lu-	.	1G,<	-tis	-ris	4g\	cae-	ter-	4ee\	cae-	nun-
4D\)	.	.	.	.	.	4f\	.	.	4b\	.	.
(4E\	.	.	.	.	.	4g\	.	.	1ee\	.	.
!LO:TX:t=P:problem:kreska pseudotaktowa	!	!	!	!	!	!LO:TX:t=P:problem:kreska pseudotaktowa	!	!	!	!	!
4C/)	.	.	.	.	.	4e\	.	.	.	.	.
=18-	=18-	=18-	=18-	=18-	=18-	=18-	=18-	=18-	=18-	=18-	=18-
!	!	!	!LO:TX:t=P:problem:kreska pseudotaktowa	!	!	!	!	!	!	!	!
1F	.	.	1A	cae-	nun-	4f\	.	.	.	.	.
.	.	.	.	.	.	4e\	.	.	.	.	.
!	!	!	!	!	!	!	!	!	!LO:TX:t=P:problem:kreska pseudotaktowa	!	!
.	.	.	.	.	.	4f\	.	.	2dd\	-ti-	-ti-
!	!	!	!	!	!	!LO:TX:t=P:problem:kreska pseudotaktowa	!	!	!	!	!
.	.	.	.	.	.	4d\	.	.	.	.	.
!	!	!	!LO:LB:g=original	!	!	!	!	!	!	!	!
2.E\	-tis.	.	1E	.	.	2.g\	.	.	2ee,<\	-lus	-at
!	!	!	!	!	!	!	!	!	!LO:TX:t=P:problem:kreska pseudotaktowa	!	!
.	.	.	.	.	.	.	.	.	2b\	sa-	ve-
!LO:TX:t=P:problem:kreska pseudotaktowa	!	!	!	!	!	!LO:TX:t=P:problem:kreska pseudotaktowa	!	!	!	!	!
4D/	.	.	.	.	.	4f\	.	.	.	.	.
=19-	=19-	=19-	=19-	=19-	=19-	=19-	=19-	=19-	=19-	=19-	=19-
4C/	cae-	.	1E	.	.	2.e\	.	-ris	2cc\	-lu-	-niſ-
4BB/	.	.	.	.	.	.	.	.	.	.	.
!	!	!	!	!	!	!	!	!	!LO:TX:t=P:problem:kreska pseudotaktowa	!	!
4C/	.	.	.	.	.	.	.	.	2a\	-tis	-se
!LO:TX:t=P:problem:kreska pseudotaktowa	!	!	!	!	!	!	!	!	!	!	!
4AA/	.	.	.	.	.	8d\L	.	.	.	.	.
!	!	!	!	!	!	!LO:TX:t=P:problem:kreska pseudotaktowa	!	!	!	!	!
.	.	.	.	.	.	8c\J	.	.	.	.	.
2.E\	.	.	1G	-li-	-ti-	2.B/	.	nun-	2.b\	cae-	nun-
!	!	!	!	!	!	!LO:TX:t=P:problem:kreska pseudotaktowa	!	!	!LO:TX:t=P:problem:kreska pseudotaktowa	!	!
4E\	-li-	-ti-	.	.	.	4B/	-li-	-ti-	4b\	-li-	-ti-
=20-	=20-	=20-	=20-	=20-	=20-	=20-	=20-	=20-	=20-	=20-	=20-
!LO:TX:t=P:problem:kreska pseudotaktowa	!	!	!LO:TX:t=P:problem:kreska pseudotaktowa	!	!	!LO:TX:t=P:problem:kreska pseudotaktowa	!	!	!LO:TX:t=P:problem:kreska pseudotaktowa	!	!
1AA	-tus	-at	1A	-tus	-at	1c#X	-tus	-at	1a,<	-tus	-at
!	!	!	!LO:TX:t=P:problem:kreska pseudotaktowa	!	!	!	!	!	!LO:TX:t=P:problem:kreska pseudotaktowa	!	!
0r	.	.	1r	.	.	0r	.	.	1d	in-	cum
!	!	!	!	!	!	!	!	!	!LO:LB:g=original	!	!
=21-	=21-	=21-	=21-	=21-	=21-	=21-	=21-	=21-	=21-	=21-	=21-
.	.	.	1D	in-	cum	.	.	.	2f/	-cor-	car-
!	!	!	!	!	!	!	!	!	!LO:TX:t=P:problem:kreska pseudotaktowa	!	!
.	.	.	.	.	.	.	.	.	2f/	-po-	-ne
!	!	!	!	!	!	!	!	!	!LO:TX:t=P:problem:kreska pseudotaktowa	!	!
1r	.	.	2.F/	-cor-	car-	2r	.	.	1a	-ra-	ter-
!	!	!	!	!	!	!LO:TX:t=P:problem:kreska pseudotaktowa	!	!	!	!	!
.	.	.	.	.	.	2A/	in-	cum	.	.	.
!	!	!	!LO:TX:t=P:problem:kreska pseudotaktowa	!	!	!	!	!	!	!	!
.	.	.	4F/	-po-	-ne	.	.	.	.	.	.
!	!	!	!	!	!	!LO:LB:g=original	!	!	!	!	!
=22-	=22-	=22-	=22-	=22-	=22-	=22-	=22-	=22-	=22-	=22-	=22-
2rBB	.	.	1A	-ra-	ter-	2cny\	-cor-	car-	2a\	-tum	-re-
!LO:TX:t=P:problem:kreska pseudotaktowa	!	!	!	!	!	!LO:TX:t=P:problem:kreska pseudotaktowa	!	!	!	!	!
2AA/	in-	cum	.	.	.	2c\	-po-	-ne	1cc	gi-	.
2C/	-cor-	car-	1A	-tum	-re-	2e\	-ra-	ter-	.	.	.
!	!	!	!	!	!	!LO:TX:t=P:problem:kreska pseudotaktowa	!	!	!LO:TX:t=P:problem:kreska pseudotaktowa	!	!
2C/	-po-	-ne	.	.	.	2c\	-tum	-re-	2cc\	-gne-	-stri
=23-	=23-	=23-	=23-	=23-	=23-	=23-	=23-	=23-	=23-	=23-	=23-
2D\	-ra-	ter-	1B-X	.	.	2f\	gi-	-stri	2b-X\	-re	De-
!LO:TX:t=P:problem:kreska pseudotaktowa	!	!	!	!	!	!	!	!	!LO:TX:t=P:problem:kreska pseudotaktowa	!	!
2E\	.	.	.	.	.	4e\	.	.	2g\	in-	-um
!	!	!	!	!	!	!LO:TX:t=P:problem:kreska pseudotaktowa	!	!	!	!	!
.	.	.	.	.	.	4d\	.	.	.	.	.
!LO:LB:g=original	!	!	!	!	!	!	!	!	!	!	!
2F\	.	-re-	1A	.	.	2c\	.	De-	2a\	-cor-	ter-
!LO:TX:t=P:problem:kreska pseudotaktowa	!	!	!	!	!	!	!	!	!	!	!
2D\	.	.	.	.	.	1d\	.	-um	4dd\	-po-	-re-
.	.	.	.	.	.	.	.	.	4cc\	.	.
=24-	=24-	=24-	=24-	=24-	=24-	=24-	=24-	=24-	=24-	=24-	=24-
!	!	!	!LO:TX:t=P:problem:kreska pseudotaktowa	!	!	!	!	!	!	!	!
4G\	.	.	1G	.	.	.	.	.	4bny\	.	.
4F\	.	.	.	.	.	.	.	.	4a\	.	.
!	!	!	!	!	!	!	!	!	!LO:TX:t=P:problem:kreska pseudotaktowa	!	!
4E\	.	.	.	.	.	1e	-gne-	cum	2g\	.	.
!LO:TX:t=P:problem:kreska pseudotaktowa	!	!	!	!	!	!	!	!	!	!	!
4D\	.	.	.	.	.	.	.	.	.	.	.
2C/	.	.	1E	.	.	.	.	.	2.cc\	-ra-	.
!LO:TX:t=P:problem:kreska pseudotaktowa	!	!	!	!	!	!LO:TX:t=P:problem:kreska pseudotaktowa	!	!	!	!	!
2AA/	.	-stri	.	.	.	2c\	-re	car-	.	.	.
.	.	.	.	.	.	.	.	.	4b\	.	.
=25-	=25-	=25-	=25-	=25-	=25-	=25-	=25-	=25-	=25-	=25-	=25-
!	!	!	!	!	!	!	!	!	!LO:TX:t=P:problem:kreska pseudotaktowa	!	!
2D\	.	ter-	1F	.	.	2f\	in	-ne	1a	-tum	-stri
!	!	!	!	!	!	!LO:TX:t=P:problem:kreska pseudotaktowa	!	!	!	!	!
1F	.	-re-	.	.	.	2a\	cor-	ter-	.	.	.
!	!	!	!	!	!	!LO:TX:t=P:problem:kreska pseudotaktowa	!	!	!	!	!
.	.	.	1G	.	-stri	1g	-po-	-re-	2b\	gi-	De-
!LO:TX:t=P:problem:kreska pseudotaktowa	!	!	!	!	!	!	!	!	!LO:TX:t=P:problem:kreska pseudotaktowa	!	!
2E\	-tum	-stri	.	.	.	.	.	.	2cc#X\	.	.
=26-	=26-	=26-	=26-	=26-	=26-	=26-	=26-	=26-	=26-	=26-	=26-
1.D	gi-	DE-	1.F	gi-	De-	4d\	-ra-	-stri	1.dd	.	.
.	.	.	.	.	.	4c\	.	.	.	.	.
.	.	.	.	.	.	4d\	-tum	.	.	.	.
!	!	!	!	!	!	!LO:TX:t=P:problem:kreska pseudotaktowa	!	!	!	!	!
.	.	.	.	.	.	4e\	.	.	.	.	.
.	.	.	.	.	.	2f\	gi-	De-	.	.	.
!LO:TX:t=P:problem:kreska pseudotaktowa	!	!	!	!	!	!LO:TX:t=P:problem:kreska pseudotaktowa	!	!	!LO:TX:t=P:problem:kreska pseudotaktowa	!	!
2D/	-gne-	.	2F/	-gne-	-um	2d\	-gne-	.	2dd\	-gne-	.
=27-	=27-	=27-	=27-	=27-	=27-	=27-	=27-	=27-	=27-	=27-	=27-
0AAl\;	-re.	-UM.	0El\;	-re	.	0el;	-re.	-um	0cc#Xl;	-re.	-um.
!	!	!	!LO:LB:g=original	!	!	!LO:PB:g=original	!	!	!LO:PB:g=original	!	!
=28||	=28||	=28||	=28||	=28||	=28||	=28||	=28||	=28||	=28||	=28||	=28||
*M2/1	*	*	*M2/1	*	*	*M2/1	*	*	*M2/1	*	*
*met(c|)	*	*	*met(c|)	*	*	*met(c|)	*	*	*met(c|)	*	*
*	*verse3	*verse4	*	*verse3	*verse4	*	*verse3	*verse4	*	*verse3	*verse4
!	!	!	!	!	!	!	!	!	!LO:TX:t=P:problem:kreska pseudotaktowa	!	!
00r	.	.	00r	.	.	0r	.	.	1d	3._Vi-	4._Re-
.	.	.	.	.	.	.	.	.	2f/	-de-	-gem
!	!	!	!	!	!	!	!	!	!LO:TX:t=P:problem:kreska pseudotaktowa	!	!
.	.	.	.	.	.	.	.	.	2f/	-re	De-
=29-	=29-	=29-	=29-	=29-	=29-	=29-	=29-	=29-	=29-	=29-	=29-
!	!	!	!	!	!	!LO:TX:t=P:problem:kreska pseudotaktowa	!	!	!LO:TX:t=P:problem:kreska pseudotaktowa	!	!
.	.	.	.	.	.	1r	.	.	1g	post-	.
!	!	!	!	!	!	!	!	!	!LO:TX:t=P:problem:kreska pseudotaktowa	!	!
.	.	.	.	.	.	1A	3._Vi-	4._Re-	1a	.	-um
=30-	=30-	=30-	=30-	=30-	=30-	=30-	=30-	=30-	=30-	=30-	=30-
!	!	!	!	!	!	!	!	!	!LO:TX:t=P:problem:kreska pseudotaktowa	!	!
00r	.	.	0r	.	.	2B/	-de-	-gem	1d	-qvam	qvo
!	!	!	!	!	!	!LO:TX:t=P:problem:kreska pseudotaktowa	!	!	!	!	!
.	.	.	.	.	.	2B/	-re	De-	.	.	.
.	.	.	.	.	.	1c#X	post-	-um	2e/	il-	De-
!	!	!	!	!	!	!	!	!	!LO:TX:t=P:problem:kreska pseudotaktowa	!	!
.	.	.	.	.	.	.	.	.	2g/	-lum	-um
=31-	=31-	=31-	=31-	=31-	=31-	=31-	=31-	=31-	=31-	=31-	=31-
!	!	!	!	!	!	!LO:TX:t=P:problem:kreska pseudotaktowa	!	!	!	!	!
.	.	.	1D	3._Vi-	4._Re-	1d	.	.	4f/	il-	De-
.	.	.	.	.	.	.	.	.	4e/	.	.
.	.	.	.	.	.	.	.	.	4f/	.	.
!	!	!	!	!	!	!	!	!	!LO:TX:t=P:problem:kreska pseudotaktowa	!	!
.	.	.	.	.	.	.	.	.	4g/	.	.
!	!	!	!	!	!	!	!	!	!LO:TX:t=P:problem:kreska pseudotaktowa	!	!
.	.	.	2F/	-de-	-gem	2A,</	-qvam	qve	1a	.	-um
.	.	.	2F/	-re	De-	1d\	il-	De-	.	.	.
=32-	=32-	=32-	=32-	=32-	=32-	=32-	=32-	=32-	=32-	=32-	=32-
!LO:TX:t=P:problem:kreska pseudotaktowa	!	!	!	!	!	!	!	!	!LO:TX:t=P:problem:kreska pseudotaktowa	!	!
1r	.	.	1G	post-	-um-	.	.	.	1b	-lum	qve
!	!	!	!	!	!	!LO:TX:t=P:problem:kreska pseudotaktowa	!	!	!	!	!
.	.	.	.	.	.	2d\	-lum	-um	.	.	.
1AA	3._Vi-	4._Re-	1A	.	.	1cny	Ma-	an-	2cc\	Ma-	an-
.	.	.	.	.	.	.	.	.	1a\	.	-nun-
=33-	=33-	=33-	=33-	=33-	=33-	=33-	=33-	=33-	=33-	=33-	=33-
!	!	!	!LO:TX:t=P:problem:kreska pseudotaktowa	!	!	!LO:TX:t=P:problem:kreska pseudotaktowa	!	!	!	!	!
2BB/	-de-	-gem	1D	-qvam	-(que)	1B	.	-nun-	.	.	.
2BB/	-re	.	.	.	.	.	.	.	2g#X\	.	-ti-
!	!	!	!	!	!	!	!	!	!LO:TX:t=P:problem:kreska pseudotaktowa	!	!
(1C#X	post-	De-	1E	il-	an-	2A,</	-gi,	-tiant	1a	-gi	-ant
!	!	!	!	!	!	!LO:TX:t=P:problem:kreska pseudotaktowa	!	!	!	!	!
.	.	.	.	.	.	2a\	vi-	Re-	.	.	.
!	!	!	!	!	!	!	!	!	!LO:LB:g=original	!	!
=34-	=34-	=34-	=34-	=34-	=34-	=34-	=34-	=34-	=34-	=34-	=34-
!LO:TX:t=P:problem:kreska pseudotaktowa	!	!	!	!	!	!	!	!	!	!	!
1D)	.	.	1F	.	.	2f\	-de-	-gem	2r	.	.
!	!	!	!	!	!	!LO:TX:t=P:problem:kreska pseudotaktowa	!	!	!LO:TX:t=P:problem:kreska pseudotaktowa	!	!
.	.	.	.	.	.	2d\	-re	De-	2dd\	il-	Re-
!LO:PB:g=original	!	!	!	!	!	!	!	!	!	!	!
2GG/	.	-um	1G,<	-lum	.	2e\	post	-um	2b-X\	-lum	-gem
!LO:TX:t=P:problem:kreska pseudotaktowa	!	!	!	!	!	!LO:TX:t=P:problem:kreska pseudotaktowa	!	!	!LO:TX:t=P:problem:kreska pseudotaktowa	!	!
2Cny/	-qvam	an-	.	.	.	2e\	quam	qvae	2gny\	vi-	DE-
!	!	!	!	!	!	!LO:LB:g=original	!	!	!	!	!
=35-	=35-	=35-	=35-	=35-	=35-	=35-	=35-	=35-	=35-	=35-	=35-
2.FF/	il-	-nun-	1F	Ma-	-nun-	2f\	il-	an-	2a\	-de-	-UM
!	!	!	!	!	!	!	!	!	!LO:TX:t=P:problem:kreska pseudotaktowa	!	!
.	.	.	.	.	.	1d	-lum	-nun-	2a\	-re	qve
4GG/	.	.	.	.	.	.	.	.	.	.	.
2AA,</	-lum	.	1E	.	.	.	.	.	2.a\	ma-	an-
!	!	!	!	!	!	!LO:TX:t=P:problem:kreska pseudotaktowa	!	!	!	!	!
2A\	Ma-	-ti-	.	.	.	2c/	Ma-	-ti-	.	.	.
.	.	.	.	.	.	.	.	.	4a\	.	-nun-
=36-	=36-	=36-	=36-	=36-	=36-	=36-	=36-	=36-	=36-	=36-	=36-
!LO:TX:t=P:problem:kreska pseudotaktowa	!	!	!	!	!	!LO:TX:t=P:problem:kreska pseudotaktowa	!	!	!LO:TX:t=P:problem:kreska pseudotaktowa	!	!
1D	-gi	-ant	1D	.	-ti-	1d	-gi	-ant	1a	-gi	-tiant
!	!	!	!LO:TX:t=P:problem:kreska pseudotaktowa	!	!	!	!	!	!	!	!
2.C/	E-	The-	1E	-gi	-at	0r	.	.	00r	.	.
4D/	-ò-	.	.	.	.	.	.	.	.	.	.
=37-	=37-	=37-	=37-	=37-	=37-	=37-	=37-	=37-	=37-	=37-	=37-
2E\	-á	-sau-	1G	e-	The-	.	.	.	.	.	.
!LO:TX:t=P:problem:kreska pseudotaktowa	!	!	!	!	!	!	!	!	!	!	!
2E\	.	-rus	.	.	.	.	.	.	.	.	.
1F	pro-	The-	1A	-o-	-sau-	2r	.	.	.	.	.
!	!	!	!	!	!	!LO:TX:t=P:problem:kreska pseudotaktowa	!	!	!	!	!
.	.	.	.	.	.	2c\	e-	.	.	.	.
=38-	=38-	=38-	=38-	=38-	=38-	=38-	=38-	=38-	=38-	=38-	=38-
!	!	!	!LO:TX:t=P:problem:kreska pseudotaktowa	!	!	!	!	!	!	!	!
2C/	-munt	-sau-	1c	-a	.	2e\	-ò-	.	.	.	.
2A\	e-	.	.	.	.	2e\	-a	.	.	.	.
2E\	-ò-	-rus	1c	pro-	-rus	2g\	pro-	.	1g	e-	The-
!LO:TX:t=P:problem:kreska pseudotaktowa	!	!	!	!	!	!LO:TX:t=P:problem:kreska pseudotaktowa	!	!	!	!	!
2E\	-á	et	.	.	.	2e\	-munt	.	.	.	.
!	!	!	!LO:PB:g=original	!	!	!	!	!	!	!	!
=39-	=39-	=39-	=39-	=39-	=39-	=39-	=39-	=39-	=39-	=39-	=39-
!	!	!	!LO:TX:t=P:problem:kreska pseudotaktowa	!	!	!	!	!	!	!	!
1F	pro-	fla-	1c	.	et	2a\	Mu-	.	1a	-ò-	-sau-
.	.	.	.	.	.	1f	.	.	.	.	.
!	!	!	!LO:TX:t=P:problem:kreska pseudotaktowa	!	!	!	!	!	!LO:TX:t=P:problem:kreska pseudotaktowa	!	!
2D\	-munt	-grans	1B	.	.	.	.	.	1bny	-a	-rus
!	!	!	!	!	!	!LO:TX:t=P:problem:kreska pseudotaktowa	!	!	!	!	!
1G\	Mu-	o-	.	.	.	2d\	-ne-	.	.	.	.
=40-	=40-	=40-	=40-	=40-	=40-	=40-	=40-	=40-	=40-	=40-	=40-
!	!	!	!LO:TX:t=P:problem:kreska pseudotaktowa	!	!	!LO:TX:t=P:problem:kreska pseudotaktowa	!	!	!	!	!
.	.	.	1A	.	fla-	1c	-ra	.	2cc\	pro-	et
!LO:TX:t=P:problem:kreska pseudotaktowa	!	!	!	!	!	!	!	!	!LO:TX:t=P:problem:kreska pseudotaktowa	!	!
2F#X\	-ne-	.	.	.	.	.	.	.	2cc\	-munt	.
!LO:LB:g=original	!	!	!LO:TX:t=P:problem:kreska pseudotaktowa	!	!	!	!	!	!	!	!
2G,<\	-ra	-dor	1G	-munt	-grans	2r	.	.	2b\	pro-	flag-
!LO:TX:t=P:problem:kreska pseudotaktowa	!	!	!	!	!	!	!	!	!LO:TX:t=P:problem:kreska pseudotaktowa	!	!
2C/	E-	The-	.	.	.	2e\	e-	.	2cc\	-munt	-rans
=41-	=41-	=41-	=41-	=41-	=41-	=41-	=41-	=41-	=41-	=41-	=41-
!	!	!	!LO:TX:t=P:problem:kreska pseudotaktowa	!	!	!	!	!	!	!	!
2Fny\	-ó-	-sau-	1A	mu-	o-	2f\	-ò-	.	2.a\	mu-	o-
!LO:TX:t=P:problem:kreska pseudotaktowa	!	!	!	!	!	!LO:TX:t=P:problem:kreska pseudotaktowa	!	!	!	!	!
2F\	-à	-rus	.	.	.	2f\	-a	.	.	.	.
.	.	.	.	.	.	.	.	.	4a\	-ne-	.
*	*	*	*col	*	*	*	*	*	*	*	*
2E\	pro-	et	2.c\	.	.	2g\	pro-	.	2g\	-ra	-dor
!	!	!	!	!	!	!	!	!	!LO:TX:t=P:problem:kreska pseudotaktowa	!	!
2C/	.	.	.	.	.	1e\	-munt	.	2cc\	pro-	et
!	!	!	!LO:TX:t=P:problem:kreska pseudotaktowa	!	!	!	!	!	!	!	!
.	.	.	4c\	-ne-	-dor	.	.	.	.	.	.
*	*	*	*Xcol	*	*	*	*	*	*	*	*
!	!	!	!	!	!	!LO:LB:g=original	!	!	!LO:LB:g=original	!	!
=42-	=42-	=42-	=42-	=42-	=42-	=42-	=42-	=42-	=42-	=42-	=42-
!	!	!	!LO:TX:t=P:problem:kreska pseudotaktowa	!	!	!	!	!	!	!	!
2A\	-munt	fla-	1c	-ra	.	.	.	.	2a\	-munt	flag-
2F\	.	-grans	.	.	.	4f\	.	.	1cc	Mu-	-rans
!	!	!	!	!	!	!LO:TX:t=P:problem:kreska pseudotaktowa	!	!	!	!	!
.	.	.	.	.	.	4e\	.	.	.	.	.
!	!	!	!LO:TX:t=P:problem:kreska pseudotaktowa	!	!	!	!	!	!	!	!
2.G\	mu-	o-	1G	stra-	Thu-	2.d\	mu-	.	.	.	.
.	.	.	.	.	.	.	.	.	2b\	-ne-	o-
!	!	!	!	!	!	!LO:TX:t=P:problem:kreska pseudotaktowa	!	!	!	!	!
4GG/	-ne-	.	.	.	.	4d\	-ne-	.	.	.	.
=43-	=43-	=43-	=43-	=43-	=43-	=43-	=43-	=43-	=43-	=43-	=43-
!LO:TX:t=P:problem:kreska pseudotaktowa	!	!	!LO:TX:t=P:problem:kreska pseudotaktowa	!	!	!LO:TX:t=P:problem:kreska pseudotaktowa	!	!	!LO:TX:t=P:problem:kreska pseudotaktowa	!	!
1C	-ra	-dor	1G	-ti-	.	1e	-ra	.	1cc	-ra	-dor
!	!	!	!LO:TX:t=P:problem:kreska pseudotaktowa	!	!	!	!	!	!	!	!
00r	.	.	1c	.	-ris	1c	stra-	.	0r	.	.
=44-	=44-	=44-	=44-	=44-	=44-	=44-	=44-	=44-	=44-	=44-	=44-
!	!	!	!LO:TX:t=P:problem:kreska pseudotaktowa	!	!	!	!	!	!	!	!
.	.	.	1d	-qve	Sa-	1f	-ti-	.	.	.	.
!	!	!	!LO:TX:t=P:problem:kreska pseudotaktowa	!	!	!	!	!	!	!	!
.	.	.	1B	vo-	.	1g	.	.	1g	stra-	Thu-
=45-	=45-	=45-	=45-	=45-	=45-	=45-	=45-	=45-	=45-	=45-	=45-
!	!	!	!LO:TX:t=P:problem:kreska pseudotaktowa	!	!	!	!	!	!LO:TX:t=P:problem:kreska pseudotaktowa	!	!
.	.	.	1c	.	-bae-	2e\	-qve	.	1cc	-ti-	-ris
!	!	!	!	!	!	!LO:TX:t=P:problem:kreska pseudotaktowa:między nutą a kropką	!	!	!	!	!
.	.	.	.	.	.	2.g\	vo-	.	.	.	.
!	!	!	!LO:TX:t=P:problem:kreska pseudotaktowa	!	!	!	!	!	!	!	!
0r	.	.	1B	.	-i	.	.	.	2dd\	-qve	Sa-
.	.	.	.	.	.	4d\	-tis	.	.	.	.
.	.	.	.	.	.	1g\	of-	.	2b\	.	-bae-
=46-	=46-	=46-	=46-	=46-	=46-	=46-	=46-	=46-	=46-	=46-	=46-
!	!	!	!LO:TX:t=P:problem:kreska pseudotaktowa	!	!	!	!	!	!	!	!
.	.	.	1A	.	ac	.	.	.	1cc	vo-	-i
.	.	.	.	.	.	2f#X\	-fe-	.	.	.	.
!	!	!	!LO:TX:t=P:problem:kreska pseudotaktowa	!	!	!LO:TX:t=P:problem:kreska pseudotaktowa	!	!	!LO:TX:t=P:problem:kreska pseudotaktowa	!	!
2rC	.	.	1G	-tis	.	1g	-runt	.	1b	-tis	ac
2C/	Stra-	Thu-	.	.	.	.	.	.	.	.	.
!	!	!	!LO:LB:g=original	!	!	!	!	!	!	!	!
=47-	=47-	=47-	=47-	=47-	=47-	=47-	=47-	=47-	=47-	=47-	=47-
!	!	!	!LO:TX:t=P:problem:kreska pseudotaktowa	!	!	!	!	!	!	!	!
2F\	-ti-	-ris	1A	of-	.	2r	.	.	2.a\	of-	myr-
!LO:TX:t=P:problem:kreska pseudotaktowa	!	!	!	!	!	!	!	!	!	!	!
2F\	-qve	Sa-	.	.	.	2fny\	stra-	.	.	.	.
!	!	!	!	!	!	!	!	!	!LO:TX:t=P:problem:kreska pseudotaktowa	!	!
.	.	.	.	.	.	.	.	.	4a\	-fe-	-rhe-
2E\	vo-	-bae-	1E	.	Myr-	2g\	-ti-	.	2g\	-runt	-us
!LO:TX:t=P:problem:kreska pseudotaktowa	!	!	!	!	!	!LO:TX:t=P:problem:kreska pseudotaktowa	!	!	!	!	!
2C/	-tis	-i	.	.	.	2e\	-qve	.	1cc\	vo-	.
=48-	=48-	=48-	=48-	=48-	=48-	=48-	=48-	=48-	=48-	=48-	=48-
4AA/	of-	ac	1E	.	.	2a\	vo-	.	.	.	.
4BB/	.	.	.	.	.	.	.	.	.	.	.
!	!	!	!	!	!	!LO:TX:t=P:problem:kreska pseudotaktowa	!	!	!LO:TX:t=P:problem:kreska pseudotaktowa	!	!
4C/	.	.	.	.	.	2a\	-tis	.	2cc\	-tis	ac
!LO:TX:t=P:problem:kreska pseudotaktowa	!	!	!	!	!	!	!	!	!	!	!
4D/	.	.	.	.	.	.	.	.	.	.	.
!LO:LB:g=original	!	!	!	!	!	!LO:LB:g=original	!	!	!	!	!
2.E\	.	myr-	1G#X	-fe-	-rhe-	2.e\	of-	.	2.b\	of-	myr-
!	!	!	!	!	!	!LO:TX:t=P:problem:kreska pseudotaktowa	!	!	!LO:TX:t=P:problem:kreska pseudotaktowa	!	!
4E\	-fe-	-rhe-	.	.	.	4e\	-fe-	.	4b\	-fe-	-rhe-
=49-	=49-	=49-	=49-	=49-	=49-	=49-	=49-	=49-	=49-	=49-	=49-
!LO:TX:t=P:problem:kreska pseudotaktowa	!	!	!LO:TX:t=P:problem:kreska pseudotaktowa	!	!	!LO:TX:t=P:problem:kreska pseudotaktowa	!	!	!LO:TX:t=P:problem:kreska pseudotaktowa	!	!
1AA	-runt	-us	1A	-runt	-us	1e	-runt	.	1a	-runt	-us
!	!	!	!LO:TX:t=P:problem:kreska pseudotaktowa	!	!	!	!	!	!LO:TX:t=P:problem:kreska pseudotaktowa	!	!
!	!	!	!	!	!	!	!	!	!LO:LB:g=original	!	!
0r	.	.	1r	.	.	0r	.	.	1d	thus	Pul-
=50-	=50-	=50-	=50-	=50-	=50-	=50-	=50-	=50-	=50-	=50-	=50-
.	.	.	1D	Thus	Pul-	.	.	.	2f/	myr-	-vis
!	!	!	!	!	!	!	!	!	!LO:TX:t=P:problem:kreska pseudotaktowa	!	!
.	.	.	.	.	.	.	.	.	2f/	-ham	Se-
1r	.	.	2F/	Myr-	-vis	2r	.	.	4a\	et	-pul-
.	.	.	.	.	.	.	.	.	4g\	.	.
!	!	!	!LO:TX:t=P:problem:kreska pseudotaktowa	!	!	!LO:TX:t=P:problem:kreska pseudotaktowa	!	!	!	!	!
.	.	.	2F/	-rham	se-	2A/	Thus	.	4a\	.	.
!	!	!	!	!	!	!	!	!	!LO:TX:t=P:problem:kreska pseudotaktowa	!	!
.	.	.	.	.	.	.	.	.	4b\	.	.
=51-	=51-	=51-	=51-	=51-	=51-	=51-	=51-	=51-	=51-	=51-	=51-
!	!	!	!	!	!	!	!	!	!LO:TX:t=P:problem:kreska pseudotaktowa	!	!
2rBB	.	.	1A	et	-pul-	2c/	myr-	.	1cc	au-	.
!	!	!	!	!	!	!LO:TX:t=P:problem:kreska pseudotaktowa	!	!	!	!	!
2AA/	Thus	pul-	.	.	.	2c/	-rha(m)	.	.	.	.
2C/	Myr-	-vis	1A	au-	.	4e\	et	.	2cc\	-rum	-chrum,
.	.	.	.	.	.	4d\	.	.	.	.	.
!LO:TX:t=P:problem:kreska pseudotaktowa	!	!	!	!	!	!	!	!	!	!	!
2C/	-h(am)	se-	.	.	.	4e\	.	.	2cc\	et	Se-
!	!	!	!	!	!	!LO:TX:t=P:problem:kreska pseudotaktowa	!	!	!	!	!
.	.	.	.	.	.	4c\	.	.	.	.	.
=52-	=52-	=52-	=52-	=52-	=52-	=52-	=52-	=52-	=52-	=52-	=52-
2D\	et	-pul-	1B-X	.	.	2d\	au-	.	2b-X\	au-	-pul-
!	!	!	!	!	!	!	!	!	!LO:TX:t=P:problem:kreska pseudotaktowa	!	!
2E\	.	.	.	.	.	1g	.	.	2g/	-rum	-chrum
!LO:TX:t=P:problem:kreska pseudotaktowa	!	!	!	!	!	!	!	!	!	!	!
1F	au-	.	1A	.	.	.	.	.	4f/	et	Se-
.	.	.	.	.	.	.	.	.	4g/	.	.
.	.	.	.	.	.	1f\	.	.	4a/	.	.
!	!	!	!	!	!	!	!	!	!LO:TX:t=P:problem:kreska pseudotaktowa	!	!
.	.	.	.	.	.	.	.	.	4b-/	.	.
=53-	=53-	=53-	=53-	=53-	=53-	=53-	=53-	=53-	=53-	=53-	=53-
!	!	!	!LO:TX:t=P:problem:kreska pseudotaktowa	!	!	!	!	!	!	!	!
2C,</	-rum	-Chrum	1Gny	-rum	-chrum	.	.	.	1cc	au-	-pul-
!LO:TX:t=P:problem:kreska pseudotaktowa	!	!	!	!	!	!LO:TX:t=P:problem:kreska pseudotaktowa	!	!	!	!	!
2C/	thus	pul-	.	.	.	2e\	.	.	.	.	.
2C/	myr-	-vis	1E	Re-	prae-	2e\	-rum	.	2cc\	-rum	-chrum
*	*	*	*	*	*	*	*	*	*	*ij	*ij
!	!	!	!	!	!	!LO:TX:t=P:problem:kreska pseudotaktowa	!	!	!	!	!
2C#X/	-h(am)	se-	.	.	.	2e\	et	.	1a\	au-	Se-
=54-	=54-	=54-	=54-	=54-	=54-	=54-	=54-	=54-	=54-	=54-	=54-
2.D/	et	-pul-	1F	.	.	2.f\	au-	.	.	.	.
!	!	!	!	!	!	!	!	!	!LO:TX:t=P:problem:kreska pseudotaktowa	!	!
.	.	.	.	.	.	.	.	.	2a\	-rum	-pul-
*	*	*	*	*	*	*	*	*	*	*Xij	*
!LO:TX:t=P:problem:kreska pseudotaktowa	!	!	!	!	!	!LO:TX:t=P:problem:kreska pseudotaktowa	!	!	!	!	!
4Cny/	.	.	.	.	.	4e\	.	.	.	.	.
!	!	!	!LO:TX:t=P:problem:kreska pseudotaktowa	!	!	!LO:PB:g=original	!	!	!	!	!
2BB-X/	au-	.	1G	.	.	2d\	.	.	2b-X\	Re-	.
!	!	!	!	!	!	!LO:TX:t=P:problem:kreska pseudotaktowa	!	!	!	!	!
2GG/	-rum	-chrum	.	.	.	2d\	-rum	.	2b-\	.	-chrum
*	*	*	*	*	*	*	*	*	*	*	*Xij
!	!	!	!LO:LB:g=original	!	!	!	!	!	!	!	!
=55-	=55-	=55-	=55-	=55-	=55-	=55-	=55-	=55-	=55-	=55-	=55-
1.D	re-	prae-	1.F	.	.	1.d	Re-	.	1.a	-gi-	prae-
!	!	!	!LO:TX:t=P:problem:kreska pseudotaktowa	!	!	!LO:TX:t=P:problem:kreska pseudotaktowa	!	!	!LO:TX:t=P:problem:kreska pseudotaktowa	!	!
2D\	-gi-	-do-	2F/	-gi-	-do-	2d\	-gi-	.	2a\	.	-do-
=56-	=56-	=56-	=56-	=56-	=56-	=56-	=56-	=56-	=56-	=56-	=56-
0AAl;	-um	-cet	0El;	-um	-cet.	0c#Xl;	-um.	.	0al;	-um	-cet.
!LO:LB:g=original	!	!	!	!	!	!	!	!	!LO:PB:g=original	!	!
=57||	=57||	=57||	=57||	=57||	=57||	=57||	=57||	=57||	=57||	=57||	=57||
*M3/2	*	*	*M3/2	*	*	*M3/2	*	*	*M3/2	*	*
*	*verse5	*	*	*verse5	*	*	*verse5	*	*	*verse5	*
2AA/	JE-	.	2A\	JE-	.	1e	JE-	.	1cc	JE-	.
2C/	-SU	.	2A\	-SU	.	.	.	.	.	.	.
!LO:TX:t=P:problem:kreska pseudotaktowa	!	!	!LO:TX:t=P:problem:kreska pseudotaktowa	!	!	!LO:TX:t=P:problem:kreska pseudotaktowa	!	!	!LO:TX:t=P:problem:kreska pseudotaktowa	!	!
2D\	Ti-	.	2A\	Ti-	.	2e\	-SU	.	2cc\	-SU	.
=58-	=58-	=58-	=58-	=58-	=58-	=58-	=58-	=58-	=58-	=58-	=58-
1E	-bi	.	1G#X	-bi	.	2e\	Ti-	.	2b\	Ti-	.
.	.	.	.	.	.	2e,<\	-bi	.	2b\	-bi	.
!LO:TX:t=P:problem:kreska pseudotaktowa	!	!	!LO:TX:t=P:problem:kreska pseudotaktowa	!	!	!LO:TX:t=P:problem:kreska pseudotaktowa	!	!	!LO:TX:t=P:problem:kreska pseudotaktowa	!	!
2AA/	sit	.	2A/	sit	.	2e\	sit	.	2cc\	sit	.
=59-	=59-	=59-	=59-	=59-	=59-	=59-	=59-	=59-	=59-	=59-	=59-
1D	glo-	.	1F	glo-	.	1d	glo-	.	1a	glo-	.
!LO:TX:t=P:problem:kreska pseudotaktowa	!	!	!LO:TX:t=P:problem:kreska pseudotaktowa	!	!	!LO:TX:t=P:problem:kreska pseudotaktowa	!	!	!LO:TX:t=P:problem:kreska pseudotaktowa	!	!
2D\	-ri-	.	2F/	-ri-	.	2d\	-ri-	.	2a\	-ri-	.
=60-	=60-	=60-	=60-	=60-	=60-	=60-	=60-	=60-	=60-	=60-	=60-
1AA,<	-a	.	1E,<	-a,	.	1c#X	-a	.	1a	-a	.
!LO:TX:t=P:problem:kreska pseudotaktowa	!	!	!LO:TX:t=P:problem:kreska pseudotaktowa	!	!	!LO:TX:t=P:problem:kreska pseudotaktowa	!	!	!LO:TX:t=P:problem:kreska pseudotaktowa	!	!
2F\	qvi	.	2A/	qvi	.	2f\	qvi	.	2cc\	qui	.
=61-	=61-	=61-	=61-	=61-	=61-	=61-	=61-	=61-	=61-	=61-	=61-
2E\	ap-	.	2c\	ap-	.	2g\	ap-	.	2cc\	ap-	.
2C/	-pa-	.	2c\	-pa-	.	2e\	-pa-	.	2cc\	-pa-	.
!LO:TX:t=P:problem:kreska pseudotaktowa	!	!	!LO:TX:t=P:problem:kreska pseudotaktowa	!	!	!LO:TX:t=P:problem:kreska pseudotaktowa	!	!	!LO:TX:t=P:problem:kreska pseudotaktowa	!	!
2E\	-ru-	.	2c\	-ru-	.	2g\	-ru-	.	2g\	-ru-	.
!	!	!	!	!	!	!LO:LB:g=original	!	!	!	!	!
=62-	=62-	=62-	=62-	=62-	=62-	=62-	=62-	=62-	=62-	=62-	=62-
1F	-i-	.	1A	-i-	.	1f	-i-	.	1a	-i-	.
!LO:TX:t=P:problem:kreska pseudotaktowa	!	!	!LO:TX:t=P:problem:kreska pseudotaktowa	!	!	!LO:TX:t=P:problem:kreska pseudotaktowa	!	!	!LO:TX:t=P:problem:kreska pseudotaktowa	!	!
2D\	-sti	.	2A/	-sti	.	2f\	-sti	.	2dd\	-sti	.
!	!	!	!LO:LB:g=original	!	!	!	!	!	!	!	!
=63-	=63-	=63-	=63-	=63-	=63-	=63-	=63-	=63-	=63-	=63-	=63-
1E	Gen-	.	1A	Gen-	.	1e	Gen-	.	1b	Gen-	.
!	!	!	!LO:TX:a:t=g	!	!	!	!	!	!	!	!
!LO:TX:t=P:problem:kreska pseudotaktowa	!	!	!LO:TX:t=P:problem:kreska pseudotaktowa	!	!	!LO:TX:t=P:problem:kreska pseudotaktowa	!	!	!LO:TX:t=P:problem:kreska pseudotaktowa	!	!
2E\	-ti-	.	2G#X\	-ti-	.	2e\	-ti-	.	2b\	-ti-	.
=64-	=64-	=64-	=64-	=64-	=64-	=64-	=64-	=64-	=64-	=64-	=64-
!LO:TX:t=P:problem:kreska pseudotaktowa	!	!	!LO:TX:t=P:problem:kreska pseudotaktowa	!	!	!LO:TX:t=P:problem:kreska pseudotaktowa	!	!	!LO:TX:t=P:problem:kreska pseudotaktowa	!	!
1.AA	-bus	.	1.A	-bus	.	1.e	-bus	.	1.cc	-bus	.
=65-	=65-	=65-	=65-	=65-	=65-	=65-	=65-	=65-	=65-	=65-	=65-
2F\	cum	.	2c\	Cum	.	2f\	Cum	.	2a\	Cum	.
2F\	Pa-	.	2c\	Pa-	.	2f\	Pa-	.	2a\	Pa-	.
4F\	-tre	.	4c\	-tre	.	4f\	-tre	.	4a\	-tre	.
!LO:TX:t=P:problem:kreska pseudotaktowa	!	!	!LO:TX:t=P:problem:kreska pseudotaktowa	!	!	!LO:TX:t=P:problem:kreska pseudotaktowa	!	!	!LO:TX:t=P:problem:kreska pseudotaktowa	!	!
4F\	et	.	4c\	et	.	4f\	et	.	4a\	et	.
!LO:PB:g=original	!	!	!	!	!	!	!	!	!LO:LB:g=original	!	!
=66-	=66-	=66-	=66-	=66-	=66-	=66-	=66-	=66-	=66-	=66-	=66-
1B-X	al-	.	1d	al-	.	1f	al-	.	1b-X	al-	.
!LO:TX:t=P:problem:kreska pseudotaktowa	!	!	!LO:TX:t=P:problem:kreska pseudotaktowa	!	!	!LO:TX:t=P:problem:kreska pseudotaktowa	!	!	!LO:TX:t=P:problem:kreska pseudotaktowa	!	!
2A\	-mo	.	2c\	-mo	.	2f\	-mo	.	2f/	-mo	.
=67-	=67-	=67-	=67-	=67-	=67-	=67-	=67-	=67-	=67-	=67-	=67-
1G	Spi-	.	1B-X	Spi-	.	1f	Spi-	.	1b-X	Spi-	.
!	!	!	!LO:TX:t=P:problem:kreska pseudotaktowa	!	!	!LO:TX:t=P:problem:kreska pseudotaktowa	!	!	!LO:TX:t=P:problem:kreska pseudotaktowa	!	!
2G\	-ri-	.	2B-\	-ri-	.	2e\	-ri-	.	2g\	-ri-	.
=68-	=68-	=68-	=68-	=68-	=68-	=68-	=68-	=68-	=68-	=68-	=68-
!LO:TX:t=P:problem:kreska pseudotaktowa	!	!	!LO:TX:t=P:problem:kreska pseudotaktowa	!	!	!LO:TX:t=P:problem:kreska pseudotaktowa	!	!	!LO:TX:t=P:problem:kreska pseudotaktowa	!	!
1.F	-tu	.	1.A	-tu	.	1.f	-tu	.	1.a	-tu	.
=69-	=69-	=69-	=69-	=69-	=69-	=69-	=69-	=69-	=69-	=69-	=69-
00.r	.	.	2c\	in	.	2e\	in	.	2g\	in	.
.	.	.	2c\	sem-	.	2e\	Sem-	.	2g\	sem-	.
!	!	!	!LO:TX:t=P:problem:kreska pseudotaktowa	!	!	!LO:TX:t=P:problem:kreska pseudotaktowa	!	!	!LO:TX:t=P:problem:kreska pseudotaktowa	!	!
.	.	.	2c#X\	-pi-	.	2e\	-pi-	.	2a\	-pi-	.
=70-	=70-	=70-	=70-	=70-	=70-	=70-	=70-	=70-	=70-	=70-	=70-
.	.	.	1d	-ter-	.	1f	-ter-	.	2f/	-ter-	.
.	.	.	.	.	.	.	.	.	2d/	-na	.
!	!	!	!LO:TX:t=P:problem:kreska pseudotaktowa	!	!	!LO:TX:t=P:problem:kreska pseudotaktowa	!	!	!LO:TX:t=P:problem:kreska pseudotaktowa	!	!
.	.	.	2Gny/	-na	.	2g\	-na	.	2dd\	Sae-	.
!	!	!	!	!	!	!LO:LB:g=original	!	!	!	!	!
=71-	=71-	=71-	=71-	=71-	=71-	=71-	=71-	=71-	=71-	=71-	=71-
.	.	.	1A	sae-	.	1e	sae-	.	1dd	.	.
!	!	!	!LO:TX:t=P:problem:kreska pseudotaktowa	!	!	!LO:TX:t=P:problem:kreska pseudotaktowa	!	!	!LO:TX:t=P:problem:kreska pseudotaktowa	!	!
.	.	.	2A/	-cu-	.	2e\	-cu-	.	2cc#X\	-cu-	.
!	!	!	!LO:PB:g=original	!	!	!	!	!	!	!	!
=72-	=72-	=72-	=72-	=72-	=72-	=72-	=72-	=72-	=72-	=72-	=72-
!	!	!	!LO:TX:t=P:problem:kreska pseudotaktowa	!	!	!LO:TX:t=P:problem:kreska pseudotaktowa	!	!	!LO:TX:t=P:problem:kreska pseudotaktowa	!	!
.	.	.	1.D	-la	.	1.f	-la	.	1.dd	-la	.
=73-	=73-	=73-	=73-	=73-	=73-	=73-	=73-	=73-	=73-	=73-	=73-
2C/	Cum	.	2G/	Cum	.	2g\	Cum	.	2een\	Cum	.
2C/	Pa-	.	2G/	Pa-	.	2g\	Pa-	.	2ee\	Pa-	.
4C/	-tre	.	4cny\	-tre	.	4g\	-tre	.	4ee\	-tre	.
!LO:TX:t=P:problem:kreska pseudotaktowa	!	!	!LO:TX:t=P:problem:kreska pseudotaktowa	!	!	!LO:TX:t=P:problem:kreska pseudotaktowa	!	!	!LO:TX:t=P:problem:kreska pseudotaktowa	!	!
4C/	et	.	4c\	et	.	4g\	et	.	4ee\	et	.
=74-	=74-	=74-	=74-	=74-	=74-	=74-	=74-	=74-	=74-	=74-	=74-
1F	al-	.	1c	al-	.	1a	Al-	.	1ff	al-	.
!LO:TX:t=P:problem:kreska pseudotaktowa	!	!	!LO:TX:t=P:problem:kreska pseudotaktowa	!	!	!LO:TX:t=P:problem:kreska pseudotaktowa	!	!	!LO:TX:t=P:problem:kreska pseudotaktowa	!	!
2E\	-mo	.	2c\	-mo	.	2g\	-mo	.	2ccny\	-mo	.
!	!	!	!	!	!	!	!	!	!LO:LB:g=original	!	!
=75-	=75-	=75-	=75-	=75-	=75-	=75-	=75-	=75-	=75-	=75-	=75-
1D	Spi-	.	1c	Spi-	.	1f	Spi-	.	1ff	Spi-	.
!LO:TX:t=P:problem:kreska pseudotaktowa	!	!	!LO:TX:t=P:problem:kreska pseudotaktowa	!	!	!LO:TX:t=P:problem:kreska pseudotaktowa	!	!	!LO:TX:t=P:problem:kreska pseudotaktowa	!	!
2D\	-ri-	.	2Bny\	-ri-	.	2f\	-ri-	.	2dd\	-ri-	.
=76-	=76-	=76-	=76-	=76-	=76-	=76-	=76-	=76-	=76-	=76-	=76-
!LO:TX:t=P:problem:kreska pseudotaktowa	!	!	!LO:TX:t=P:problem:kreska pseudotaktowa	!	!	!LO:TX:t=P:problem:kreska pseudotaktowa	!	!	!LO:TX:t=P:problem:kreska pseudotaktowa	!	!
1.C	-tu	.	1.c	-tu	.	1.e	-tu	.	1.ee	-tu	.
=77-	=77-	=77-	=77-	=77-	=77-	=77-	=77-	=77-	=77-	=77-	=77-
2Gn\	in	.	2Bn\	in	.	2g\	in	.	2dd\	in	.
2G\	Sem-	.	2B\	sem-	.	2g\	sem-	.	2dd\	sem-	.
!LO:TX:t=P:problem:kreska pseudotaktowa	!	!	!LO:TX:t=P:problem:kreska pseudotaktowa	!	!	!LO:TX:t=P:problem:kreska pseudotaktowa	!	!	!LO:TX:t=P:problem:kreska pseudotaktowa	!	!
2G#X\	-pi-	.	2B\	-pi-	.	2e\	-pi-	.	2ee\	-pi-	.
!LO:LB:g=original	!	!	!	!	!	!	!	!	!	!	!
=78-	=78-	=78-	=78-	=78-	=78-	=78-	=78-	=78-	=78-	=78-	=78-
1A	-ter-	.	1c	-ter-	.	1e	-ter-	.	1ccn	-ter-	.
!LO:TX:t=P:problem:kreska pseudotaktowa	!	!	!LO:TX:t=P:problem:kreska pseudotaktowa	!	!	!LO:TX:t=P:problem:kreska pseudotaktowa	!	!	!LO:TX:t=P:problem:kreska pseudotaktowa	!	!
2D\	-na	.	2A\	-na	.	2f\	-na	.	2dd\	-na	.
!	!	!	!	!	!	!LO:LB:g=original	!	!	!	!	!
=79-	=79-	=79-	=79-	=79-	=79-	=79-	=79-	=79-	=79-	=79-	=79-
1E	sae-	.	1A	sae-	.	1e	Sae-	.	1bny	sae-	.
!	!	!	!LO:TX:t=P:problem:kreska pseudotaktowa	!	!	!LO:TX:t=P:problem:kreska pseudotaktowa	!	!	!LO:TX:t=P:problem:kreska pseudotaktowa	!	!
2E\	-cu-	.	2G#X/	-cu-	.	2e\	-cu-	.	2b\	-cu-	.
=80-	=80-	=80-	=80-	=80-	=80-	=80-	=80-	=80-	=80-	=80-	=80-
!LO:TX:t=P:problem:kreska pseudotaktowa	!	!	!LO:TX:t=P:problem:kreska pseudotaktowa	!	!	!LO:TX:t=P:problem:kreska pseudotaktowa	!	!	!LO:TX:t=P:problem:kreska pseudotaktowa	!	!
1.AA	-la	.	1.A	-la	.	1.e	-la	.	1.cc#X	-la	.
!	!	!	!LO:LB:g=original	!	!	!	!	!	!	!	!
=81-	=81-	=81-	=81-	=81-	=81-	=81-	=81-	=81-	=81-	=81-	=81-
1D	A-	.	1A	A-	.	1f	A-	.	1dd	A-	.
!LO:TX:t=P:problem:kreska pseudotaktowa	!	!	!LO:TX:t=P:problem:kreska pseudotaktowa	!	!	!LO:TX:t=P:problem:kreska pseudotaktowa	!	!	!LO:TX:t=P:problem:kreska pseudotaktowa	!	!
2C#X/	-men	.	2A/	-men	.	2e\	-men	.	2a\	-men	.
=82-	=82-	=82-	=82-	=82-	=82-	=82-	=82-	=82-	=82-	=82-	=82-
!	!	!	!LO:TX:t=P:problem:kreska pseudotaktowa	!	!	!LO:TX:t=P:problem:kreska pseudotaktowa	!	!	!LO:TX:t=P:problem:kreska pseudotaktowa	!	!
1.D	A-	.	1.A	A-	.	1.f	A-	.	1.dd	A-	.
=83-	=83-	=83-	=83-	=83-	=83-	=83-	=83-	=83-	=83-	=83-	=83-
1.AAl;	-men.	.	1.Al;	-men.	.	1.el;	-men.	.	1.cc#Xl;	-men.	.
==	==	==	==	==	==	==	==	==	==	==	==
*-	*-	*-	*-	*-	*-	*-	*-	*-	*-	*-	*-
!!!system-decoration: [g1]
!!!RDF**kern: > = above
!!!RDF**kern: < = below
!!!RDF**kern: l = terminal long
!!!AIN: 1 alto 1 empty 1 tenor 1 vox
!!!ENC: Andrzej Kubiczek
!!!END: 2021-04-10
!!!ENC: Anastazja Marusiak
!!!END: 2021-03-28
